docs/images/logo.svg

<svg width="134px" height="30px" viewBox="0 0 134 30" version="1.1" xmlns="http://www.w3.org/2000/svg" xmlns:xlink="http://www.w3.org/1999/xlink">
    <defs>
        <polygon id="path-1" points="13.918459 0.125776398 0.151159188 0.125776398 0.151159188 21.8116398 13.918459 21.8116398 13.918459 0.125776398"></polygon>
        <polygon id="path-3" points="15.1030819 16.6467205 15.1030819 0.0938012422 0.0531336173 0.0938012422 0.0531336173 16.6467205 15.1030819 16.6467205"></polygon>
    </defs>
    <g id="Page-1" stroke="none" stroke-width="1" fill="none" fill-rule="evenodd">
        <g id="iPad-Pro-Portrait" transform="translate(-462.000000, -43.000000)">
            <g id="Page-1" transform="translate(462.000000, 43.000000)">
                <path d="M5.18992281,1.77197516 L5.18992281,13.3048323 C5.18992281,15.4976273 6.00050814,16.7978758 8.23059452,16.7978758 C10.4608669,16.7978758 11.2718244,15.4976273 11.2718244,13.3048323 L11.2718244,1.77197516 L16.4618402,1.77197516 L16.4618402,14.361354 C16.4618402,18.0155776 14.6773246,20.8586832 10.947367,21.6705466 L10.947367,29.8741491 L5.51438019,29.8741491 L5.51438019,21.6705466 C3.64893628,21.2647081 2.27073657,20.3309814 1.37866481,19.0715404 C0.445849838,17.8128447 9.30210385e-05,16.1883727 9.30210385e-05,14.361354 L9.30210385e-05,1.77197516 L5.18992281,1.77197516 Z" id="Fill-1" fill="#222222"></path>
                <path d="M20.9090272,11.6404658 C20.9090272,14.9292857 22.8146562,16.7978571 25.6938434,16.7978571 C28.5722864,16.7978571 30.4781015,14.9292857 30.4781015,11.6404658 C30.4781015,8.35052795 28.5722864,6.48270186 25.6938434,6.48270186 C22.8146562,6.48270186 20.9090272,8.35052795 20.9090272,11.6404658 M35.6679313,11.6404658 C35.6679313,17.2851242 31.81593,21.9958696 25.6938434,21.9958696 C19.5711986,21.9958696 15.7191974,17.2851242 15.7191974,11.6404658 C15.7191974,5.99506211 19.5711986,1.28468944 25.6938434,1.28468944 C31.81593,1.28468944 35.6679313,5.99506211 35.6679313,11.6404658" id="Fill-3" fill="#222222"></path>
                <path d="M36.9964019,11.6404658 C36.9964019,14.9292857 38.9018449,16.7978571 41.780846,16.7978571 C44.6594751,16.7978571 46.5652901,14.9292857 46.5652901,11.6404658 C46.5652901,8.35052795 44.6594751,6.48270186 41.780846,6.48270186 C38.9018449,6.48270186 36.9964019,8.35052795 36.9964019,11.6404658 M51.7551199,11.6404658 C51.7551199,17.2851242 47.9031187,21.9958696 41.780846,21.9958696 C35.6582013,21.9958696 31.8065721,17.2851242 31.8065721,11.6404658 C31.8065721,5.99506211 35.6582013,1.28468944 41.780846,1.28468944 C47.9031187,1.28468944 51.7551199,5.99506211 51.7551199,11.6404658" id="Fill-5" fill="#222222"></path>
                <path d="M52.6887907,6.16967702 L55.2967285,6.16967702 L55.2967285,1.46191304 L58.7537624,1.46191304 L58.7537624,6.16967702 L61.8770368,6.16967702 L61.8770368,8.75135404 L58.7537624,8.75135404 L58.7537624,17.1340248 C58.7537624,18.5615404 58.8748758,19.2904845 60.4214436,19.2904845 C60.9066413,19.2904845 61.391653,19.2904845 61.8770368,19.1689938 L61.8770368,21.8417888 C61.1189153,21.9025342 60.3909327,22.0238385 59.6329973,22.0238385 C56.0245251,22.0238385 55.3573782,20.6266957 55.2967285,18.0148323 L55.2967285,8.75135404 L52.6887907,8.75135404 L52.6887907,6.16967702 Z" id="Fill-7" fill="#222222"></path>
                <g id="Group-11" transform="translate(62.696180, 0.060559)">
                    <mask id="mask-2" fill="white">
                        <use xlink:href="#path-1"></use>
                    </mask>
                    <g id="Clip-10"></g>
                    <path d="M0.151159188,0.12573913 L3.60800703,0.12573913 L3.60800703,8.17449689 L3.66865674,8.17449689 C4.51793883,6.74698137 6.30691944,5.68393789 8.36900983,5.68393789 C11.765394,5.68393789 13.918459,7.50629814 13.918459,11.029528 L13.918459,21.8116398 L10.4614251,21.8116398 L10.4614251,11.9405217 C10.4007754,9.48052174 9.43037988,8.41747826 7.39861435,8.41747826 C5.0939251,8.41747826 3.60800703,10.2396522 3.60800703,12.5481615 L3.60800703,21.8116398 L0.151159188,21.8116398 L0.151159188,0.12573913 Z" id="Fill-9" fill="#000000" mask="url(#mask-2)"></path>
                </g>
                <path d="M89.5024063,12.6390186 C89.3811068,10.4521863 87.8950027,8.47796273 85.5601746,8.47796273 C83.1645108,8.47796273 81.5269684,10.300323 81.4361799,12.6390186 L89.5024063,12.6390186 Z M81.4361799,14.9169689 C81.4361799,17.3771553 82.7702876,19.5639876 85.6511492,19.5639876 C87.6525899,19.5639876 88.8655842,18.6829938 89.4720814,16.9517516 L92.7469801,16.9517516 C91.9888586,20.3840497 89.0778582,22.2973416 85.6511492,22.2973416 C80.7387082,22.2973416 77.979146,18.8654161 77.979146,14.0361615 C77.979146,9.57137888 80.8901464,5.74442236 85.5601746,5.74442236 C90.5031266,5.74442236 93.5356124,10.209205 92.9592541,14.9169689 L81.4361799,14.9169689 Z" id="Fill-12" fill="#222222"></path>
                <path d="M94.0815157,6.16967702 L97.3566004,6.16967702 L97.3566004,8.35650932 L97.447575,8.35650932 C98.4786202,6.80750311 99.7825891,5.74445963 102.269041,5.74445963 C104.179508,5.74445963 105.968674,6.56452174 106.666146,8.35650932 C107.818491,6.74675776 109.304409,5.74445963 111.578773,5.74445963 C114.883997,5.74445963 116.824788,7.20234783 116.824788,11.0293043 L116.824788,21.8721615 L113.367754,21.8721615 L113.367754,12.6996149 C113.367754,10.2092422 113.216315,8.478 110.517403,8.478 C108.182389,8.478 107.181669,10.0270062 107.181669,12.6692422 L107.181669,21.8721615 L103.724635,21.8721615 L103.724635,11.7886211 C103.724635,9.63216149 103.057488,8.478 100.965073,8.478 C99.176092,8.478 97.5383636,9.9358882 97.5383636,12.5477516 L97.5383636,21.8721615 L94.0815157,21.8721615 L94.0815157,6.16967702 Z" id="Fill-14" fill="#222222"></path>
                <g id="Group-18" transform="translate(118.136719, 5.650621)">
                    <mask id="mask-4" fill="white">
                        <use xlink:href="#path-3"></use>
                    </mask>
                    <g id="Clip-17"></g>
                    <path d="M11.5763938,6.98839752 C11.4550944,4.80156522 9.9689903,2.82734161 7.63416223,2.82734161 C5.2384984,2.82734161 3.60095603,4.64970186 3.5101675,6.98839752 L11.5763938,6.98839752 Z M3.5101675,9.26634783 C3.5101675,11.7265342 4.84427523,13.9133665 7.7251368,13.9133665 C9.72657747,13.9133665 10.9395718,13.0323727 11.546069,11.3011304 L14.8209677,11.3011304 C14.0628462,14.7334286 11.1518458,16.6467205 7.7251368,16.6467205 C2.81269575,16.6467205 0.0531336173,13.214795 0.0531336173,8.38554037 C0.0531336173,3.92075776 2.964134,0.0938012422 7.63416223,0.0938012422 C12.5771142,0.0938012422 15.6096,4.55858385 15.0332417,9.26634783 L3.5101675,9.26634783 Z" id="Fill-16" fill="#000000" mask="url(#mask-4)"></path>
                </g>
            </g>
        </g>
    </g>
</svg>

<svg xmlns="http://www.w3.org/2000/svg" xmlns:xlink="http://www.w3.org/1999/xlink" width="134" height="30" viewBox="0 0 134 30">
  <defs>
    <mask id="a" x="62.847" y="0.186" width="13.767" height="21.686" maskUnits="userSpaceOnUse">
      <polygon points="76.615 0.186 62.847 0.186 62.847 21.872 76.615 21.872 76.615 0.186" fill="#fff" fill-rule="evenodd"/>
    </mask>
    <mask id="b" x="118.19" y="5.744" width="15.05" height="16.553" maskUnits="userSpaceOnUse">
      <polygon points="133.24 22.297 133.24 5.744 118.19 5.744 118.19 22.297 133.24 22.297" fill="#fff" fill-rule="evenodd"/>
    </mask>
  </defs>
  <g>
    <path d="M5.19,1.772V13.305C5.19,15.5,6,16.8,8.231,16.8s3.041-1.3,3.041-3.493V1.772h5.19V14.361c0,3.655-1.785,6.5-5.515,7.31v8.2H5.514v-8.2a6.625,6.625,0,0,1-4.135-2.6A7.8,7.8,0,0,1,0,14.361V1.772Z" fill="#222" fill-rule="evenodd"/>
    <path d="M20.909,11.64c0,3.289,1.906,5.158,4.785,5.158s4.784-1.869,4.784-5.158-1.906-5.157-4.784-5.157-4.785,1.868-4.785,5.157m14.759,0C35.668,17.285,31.816,22,25.694,22s-9.975-4.711-9.975-10.356S19.571,1.285,25.694,1.285,35.668,6,35.668,11.64" fill="#222" fill-rule="evenodd"/>
    <path d="M37,11.64C37,14.929,38.9,16.8,41.781,16.8s4.784-1.869,4.784-5.158-1.906-5.157-4.784-5.157S37,8.351,37,11.64m14.759,0C51.755,17.285,47.9,22,41.781,22s-9.974-4.711-9.974-10.356S35.658,1.285,41.781,1.285,51.755,6,51.755,11.64" fill="#222" fill-rule="evenodd"/>
    <path d="M52.689,6.17H55.3V1.462h3.457V6.17h3.123V8.751H58.754v8.383c0,1.428.121,2.156,1.667,2.156a5.919,5.919,0,0,0,1.456-.121v2.673c-.758.061-1.486.182-2.244.182-3.608,0-4.276-1.4-4.336-4.009V8.751H52.689Z" fill="#222" fill-rule="evenodd"/>
    <g mask="url(#a)">
      <path d="M62.847.186H66.3V8.235h.061a5.485,5.485,0,0,1,4.7-2.491c3.4,0,5.55,1.823,5.55,5.346V21.872H73.158V12C73.1,9.541,72.127,8.478,70.1,8.478A3.825,3.825,0,0,0,66.3,12.609v9.263H62.847Z" fill-rule="evenodd"/>
    </g>
    <path d="M89.5,12.639a4.035,4.035,0,1,0-8.066,0Zm-8.066,2.278c0,2.46,1.334,4.647,4.215,4.647a3.635,3.635,0,0,0,3.821-2.612h3.275c-.758,3.432-3.669,5.345-7.1,5.345-4.912,0-7.672-3.432-7.672-8.261,0-4.465,2.911-8.292,7.581-8.292,4.943,0,7.976,4.465,7.4,9.173Z" fill="#222" fill-rule="evenodd"/>
    <path d="M94.082,6.17h3.275V8.357h.091a5.24,5.24,0,0,1,4.821-2.613,4.44,4.44,0,0,1,4.4,2.613,5.657,5.657,0,0,1,4.913-2.613c3.305,0,5.246,1.458,5.246,5.285V21.872h-3.457V12.7c0-2.491-.152-4.222-2.851-4.222-2.335,0-3.335,1.549-3.335,4.191v9.2h-3.457V11.789c0-2.157-.668-3.311-2.76-3.311-1.789,0-3.427,1.458-3.427,4.07v9.324H94.082Z" fill="#222" fill-rule="evenodd"/>
    <g mask="url(#b)">
      <path d="M129.713,12.639a4.035,4.035,0,1,0-8.066,0Zm-8.066,2.278c0,2.46,1.334,4.647,4.215,4.647a3.636,3.636,0,0,0,3.821-2.612h3.275c-.758,3.432-3.669,5.345-7.1,5.345-4.913,0-7.672-3.432-7.672-8.261,0-4.465,2.911-8.292,7.581-8.292,4.943,0,7.975,4.465,7.4,9.173Z" fill-rule="evenodd"/>
    </g>
  </g>
</svg>
